packages/IcoMoon/src/LaptopIcon/index.svg

<svg version="1.1" xmlns="http://www.w3.org/2000/svg" width="16" height="16" viewBox="0 0 16 16">
<path d="M14 11v-8c0-0.55-0.45-1-1-1h-10c-0.55 0-1 0.45-1 1v8h-2v3h16v-3h-2zM10 13h-4v-1h4v1zM13 11h-10v-7.998c0.001-0.001 0.001-0.001 0.002-0.002h9.996c0.001 0.001 0.001 0.001 0.002 0.002v7.998z"></path>
</svg>

<svg xmlns="http://www.w3.org/2000/svg" viewBox="0 0 16 16">
  <path d="M14 11V3c0-.55-.45-1-1-1H3c-.55 0-1 .45-1 1v8H0v3h16v-3h-2zm-4 2H6v-1h4v1zm3-2H3V3.002L3.002 3h9.996l.002.002V11z"/>
</svg>
